X: 2
T: PJ McComiskey's
Z: JACKB
S: https://thesession.org/tunes/9554#setting22926
R: reel
M: 4/4
L: 1/8
K: Gmaj
|DG G2 EGce|dB B2 ABce|dB B2 ABGA|BG G2 EGDG|
BG G2 EGce|dB B2 ABce|dB B2 efge|1 fdcA BGGE:|2 fdcA BGGB||
|dB B2 ABGA|BG G2 EGDG|EGDG EGDG|(3EFG AB cdeg|
dB B2 ABGA|BG G2 EGDG|EGDG EGce|1 dBcA BGGB:|2 dBcA BGGE||
